X:1
T:Rory O'More
M:6/8
L:1/8
K:D
 B| ADD FED|A-D DD z B/2B/2| AGF FED| CEE E z B| ADD FED| ADD B z A/2G/2|\
 FGA ABc| dDD D z A| dcB AGF| GFE D z C| B,CD DFA| BAA A z A/2A/2|\
 dcB AGF| GFE D z C/2C/2| B,CD DFA| BAA A z||

